!!!COM: Bach, Johann Sebastian
!!!OTL@@DE: 50. In allen meinen Taten
!!!OTL@EN: In all my deeds
!!!SCA: 244.37
**harm	**root	**kern	**kern	**kern	**kern
*staff2	*	*staff2	*staff2	*staff1	*staff1
*Iorgan	*Iorgan	*Iorgan	*Iorgan	*Iorgan	*Iorgan
!	!	!bass	!tenor	!alto	!sprno
*	*	*clefF4	*clefF4	*clefG2	*clefG2
*k[b-]	*k[b-]	*k[b-]	*k[b-]	*k[b-]	*k[b-]
*met(C)	*met(C)	*met(C)	*met(C)	*met(C)	*met(C)
*F:	*F:	*F:	*F:	*F:	*F:
*M4/4	*M4/4	*M4/4	*M4/4	*M4/4	*M4/4
*MM60	*MM60	*MM60	*MM60	*MM60	*MM60
I	4FF	4F\	4c/	4f\	4a/
=1	=1	=1	=1	=1	=1
IV	4BB-	4B-\	4d/	4d\	4f/
viiob	4EE	8A\L	8c/L	4e\	4g/
.	.	8G\J	8B-/J	.	.
I	2FF	4.F\	4.A/	8f\L	(8a/L
.	.	.	.	8g\J	8b-/J
.	.	.	.	4a\	4cc/)
.	.	8E\	8G/	.	.
=2	=2	=2	=2	=2	=2
IV7b	4BB-	4D\	4F/	4a\	2b-/
V7b	4CC	4E\	4c/	4g\	.
I;	4FF;	4F;\	4c;/	4f;\	4a;/
I	4FF	8F\L	4c/	4f\	8a/L
.	.	8G\J	.	.	8b-/J
=3	=3	=3	=3	=3	=3
Ib	4FF	4A\	4c/	8f\L	4cc/
.	.	.	.	8e\J	.
Ib	4FF	8AA\L	4c/	8f\L	4cc/
.	.	8BB-\J	.	8g\J	.
V	4CC	4C\	4c/	8e\L	4g/
.	.	.	.	8d\J	.
iiib	4AA	4AA\	8c/L	4c\	(8a/L
.	.	.	8Bn/J	.	8g/J
=4	=4	=4	=4	=4	=4
viio/V	2BB	2D\	8A/L	4c\	2f/)
.	.	.	8G/J	.	.
.	.	.	4F/	4Bn\	.
V;	4CC;	4C;\	4G;/	4c;\	4e;/
V7	4CC	4C\	4B-y/	4e\	4c/
=5	=5	=5	=5	=5	=5
vi	4DD	4D\	4A/	4d\	4f/
Vb	4CC	4E\	4G/	4c\	4g/
I	4FF	4F\	4F/	4c\	8a/L
.	.	.	.	.	16b-/L
.	.	.	.	.	16cc/JJ
IV	4BB-	4BB-\	4F/	4d\	8b-/L
.	.	.	.	.	8a/J
=6	=6	=6	=6	=6	=6
V;	2.CC;	2.C;\	2.c;/	2.e;\	2.g;/
Vb/VI	4AA	4C#\	4A/	4e\	4a/
=7	=7	=7	=7	=7	=7
!!linebreak: 2
vi	4DD	4D\	4A/	4d\	4f/
Vb	4CC	4E\	4G/	4c\	4g/
I	4FF	4F\	8F/L	4c\	8a/L
.	.	.	8G/J	.	8b-/J
V7b/II	4DD	4F#\	4A/	4d\	4cc/
=8	=8	=8	=8	=8	=8
ii	2GG	4G\	8G/L	4d\	2b-/
.	.	.	8A/J	.	.
.	.	4GG\	8B-/L	4g\	.
.	.	.	8c/J	.	.
V/II;	4DD;	4D;\	4d;/	4f#;\	4a;/
vi	4DD	4d\	4d/	4fn\	8a/L
.	.	.	.	.	8b-/J
=9	=9	=9	=9	=9	=9
Ib	4FF	8A\L	8c/L	4f\	4cc/
.	.	8G\	8B-/	.	.
Ib	4FF	8A\	8c/	4f\	4cc/
.	.	8B-\J	8d/J	.	.
V	4CC	4c\	4e/	8e\L	4g/
.	.	.	.	8d\J	.
I	4FF	8F\L	4f/	4c\	(8a/L
.	.	8E\J	.	.	8g/J
=10	=10	=10	=10	=10	=10
vi7	4DD	8D\L	8F/L	4c\	2f/)
.	.	8C\J	8A/J	.	.
V7c/V	4GG	4D\	8G/L	4Bn\	.
.	.	.	8F/J	.	.
V;	4CC;	4C;\	4G;/	4c;\	4e;/
V7c	4CC	4BB-\	4E/	4G\	4c/
=11	=11	=11	=11	=11	=11
Ib	4FF	4AA\	8F/L	4c\	4f/
.	.	.	8c/J	.	.
ii	4GG	4GG\	8d/L	4B-\	4g/
.	.	.	8e/J	.	.
I	4FF	4FF\	8f/L	8A\L	4a/
.	.	.	8c/J	8c\J	.
IV7b	4BB-	4D\	8B-/L	4f\	8g/L
.	.	.	8F/J	.	16a/L
.	.	.	.	.	16b-/JJ
=12	=12	=12	=12	=12	=12
Ic	4FF	8C\L	4.c/	4f\	4a/
.	.	8BB-\J	.	.	.
V7	4CC	4C\	.	4e\	4g/
.	.	.	8B-/	.	.
I;	4FF;	4FF;\	4A;/	4c;\	4f;/
==	==	==	==	==	==
*-	*-	*-	*-	*-	*-
!!!ENC: Craig Stuart Sapp
!!!END: 2004/12/06/
!!!ONB: Harmony and Root analysis done manually by Craig Sapp
!!chor2scor: -l 2 -s 0.6 -o %b.pmx
